packages/icons/src/tasRollingSetup.svg

<svg  viewBox="0 0 33 33" fill="none" xmlns="http://www.w3.org/2000/svg">
<path d="M28.9772 31.4291H25.5675C25.501 31.4296 25.4352 31.4149 25.3751 31.3862C25.3151 31.3575 25.2623 31.3154 25.221 31.2632L23.0559 28.5542C23.0134 28.5009 22.9837 28.4386 22.9692 28.372C22.9547 28.3055 22.9557 28.2365 22.9721 28.1703L23.7956 24.8538C23.8115 24.7916 23.8405 24.7335 23.8807 24.6833C23.9208 24.6332 23.9713 24.5922 24.0285 24.5632L27.0805 23.0335C27.1419 23.0031 27.2094 22.9873 27.278 22.9873C27.3465 22.9873 27.4141 23.0031 27.4755 23.0335L30.5665 24.565C30.6251 24.5935 30.6767 24.6346 30.7173 24.6856C30.7579 24.7365 30.7866 24.7959 30.8013 24.8594L31.5875 28.1759C31.602 28.2405 31.6017 28.3075 31.5869 28.372C31.5721 28.4364 31.543 28.4968 31.5018 28.5486L29.3219 31.2651C29.2804 31.3165 29.2278 31.3579 29.1682 31.3863C29.1085 31.4146 29.0433 31.4293 28.9772 31.4291ZM25.5675 30.9726H28.9697L31.1404 28.2728L30.3578 24.9694L27.2798 23.4453L24.2391 24.9694L23.4174 28.2747L25.5675 30.9726Z" fill="#238FCF"/>
<path d="M31.1969 23.954L31.5844 23.6354L27.5059 21.6157V22.1262L31.1969 23.954Z" fill="#1BBFD3"/>
<path d="M22.2514 28.6997L21.7539 28.8096L24.599 32.3795L24.8226 31.9268L22.2514 28.6997Z" fill="#79BF43"/>
<path d="M27.0479 22.1282V21.6177L23.0234 23.6355L23.3998 23.9597L27.0479 22.1282Z" fill="#1BBFD3"/>
<path d="M23.1281 24.3284L22.7405 23.9949L21.6543 28.3622L22.1536 28.2523L23.1281 24.3284Z" fill="#1D4489"/>
<path d="M32.4062 28.2541L32.9037 28.3641L31.8696 23.9949L31.4746 24.3191L32.4062 28.2541Z" fill="#1D4489"/>
<path d="M32.3042 28.6997L29.7051 31.9324L29.9268 32.3851L32.8017 28.8096L32.3042 28.6997Z" fill="#79BF43"/>
<path d="M25.2333 32.1243L25.0098 32.5826H29.5131L29.2895 32.1243H25.2333Z" fill="#1BBFD3"/>
<path fill-rule="evenodd" clip-rule="evenodd" d="M26.8068 14.6194C27.101 14.1098 27.1036 13.4826 26.8136 12.9706L22.5695 5.47924C22.2747 4.95885 21.7228 4.63721 21.1247 4.63721H12.6819C12.0838 4.63721 11.5319 4.95885 11.2371 5.47924L6.99309 12.9706C6.70305 13.4826 6.70561 14.1098 6.99981 14.6194L11.2348 21.9546C11.5314 22.4684 12.0796 22.7849 12.6729 22.7849H21.1338C21.727 22.7849 22.2752 22.4684 22.5719 21.9546L23.9374 19.5894L17.0409 19.6369C17.0034 19.6371 16.9664 19.6349 16.9301 19.6303C14.4639 19.5914 12.2603 17.8508 11.7015 15.3257C11.0499 12.381 12.8785 9.45436 15.8114 8.8053C18.0867 8.30178 20.4085 9.089 21.8436 10.9055L23.1303 9.61882V13.7702H18.979L20.6583 12.0909C19.6425 10.6808 17.9107 10.0414 16.1702 10.4266C14.1514 10.8734 12.8652 12.8988 13.3228 14.9669C13.7205 16.7637 15.3012 17.9789 17.0327 17.9704C17.0659 17.9702 17.0988 17.972 17.1311 17.9757L24.8999 17.9222L26.8068 14.6194Z" fill="#0092E4"/>
</svg>

<svg viewBox="0 0 33 33" fill="none" xmlns="http://www.w3.org/2000/svg"><path d="M28.977 31.43h-3.41a.439.439 0 0 1-.346-.167l-2.165-2.709a.444.444 0 0 1-.084-.384l.824-3.316a.452.452 0 0 1 .233-.29l3.052-1.53a.445.445 0 0 1 .395 0l3.09 1.531a.437.437 0 0 1 .235.294l.787 3.317a.443.443 0 0 1-.086.373l-2.18 2.716a.442.442 0 0 1-.345.164Zm-3.41-.457h3.403l2.17-2.7-.782-3.304-3.078-1.524-3.04 1.524-.823 3.306 2.15 2.698Z" fill="#238FCF"/><path d="m31.197 23.954.387-.319-4.078-2.02v.511l3.69 1.828Z" fill="#1BBFD3"/><path d="m22.251 28.7-.497.11 2.845 3.57.224-.453L22.25 28.7Z" fill="#79BF43"/><path d="M27.048 22.128v-.51l-4.025 2.018.377.324 3.648-1.832Z" fill="#1BBFD3"/><path d="m23.128 24.328-.387-.333-1.087 4.367.5-.11.974-3.924ZM32.406 28.254l.498.11-1.034-4.37-.395.325.931 3.935Z" fill="#1D4489"/><path d="m32.304 28.7-2.599 3.232.222.453 2.875-3.575-.498-.11Z" fill="#79BF43"/><path d="m25.233 32.124-.223.459h4.503l-.224-.459h-4.056Z" fill="#1BBFD3"/><path fill-rule="evenodd" clip-rule="evenodd" d="M26.807 14.62a1.66 1.66 0 0 0 .007-1.65L22.57 5.48a1.66 1.66 0 0 0-1.445-.843h-8.443a1.66 1.66 0 0 0-1.445.842l-4.244 7.492A1.66 1.66 0 0 0 7 14.619l4.235 7.336c.296.513.845.83 1.438.83h8.46a1.66 1.66 0 0 0 1.439-.83l1.365-2.366-6.896.048a.845.845 0 0 1-.11-.007c-2.467-.039-4.67-1.78-5.23-4.304-.651-2.945 1.178-5.872 4.11-6.52 2.276-.504 4.598.283 6.033 2.1l1.286-1.287v4.151H18.98l1.68-1.68c-1.017-1.41-2.748-2.049-4.489-1.663-2.019.446-3.305 2.472-2.847 4.54.397 1.797 1.978 3.012 3.71 3.003.033 0 .066.002.098.006l7.769-.054 1.907-3.303Z" fill="#0092E4"/></svg>
